public/images/timeline/subtitles.svg

<svg width="23" height="25" viewBox="0 0 23 25" fill="none" xmlns="http://www.w3.org/2000/svg">
<g filter="url(#filter0_f_1184_325)">
<path d="M9.86019 16.432C9.96152 16.432 10.0495 16.472 10.1242 16.552L10.8682 17.36C10.3989 17.9253 9.82285 18.3627 9.14019 18.672C8.45752 18.976 7.64152 19.128 6.69219 19.128C5.84952 19.128 5.08685 18.984 4.40419 18.696C3.72685 18.4027 3.14819 17.9973 2.66819 17.48C2.18819 16.9573 1.81752 16.336 1.55619 15.616C1.30019 14.896 1.17219 14.104 1.17219 13.24C1.17219 12.376 1.30819 11.584 1.58019 10.864C1.85752 10.1387 2.24419 9.51733 2.74019 9C3.24152 8.47733 3.83885 8.072 4.53219 7.784C5.23085 7.496 5.99885 7.352 6.83619 7.352C7.66819 7.352 8.40152 7.488 9.03619 7.76C9.67619 8.02667 10.2309 8.384 10.7002 8.832L10.0842 9.704C10.0415 9.76267 9.99085 9.81333 9.93219 9.856C9.87352 9.89867 9.79352 9.92 9.69219 9.92C9.58552 9.92 9.46285 9.872 9.32419 9.776C9.19085 9.67467 9.01752 9.56533 8.80419 9.448C8.59619 9.32533 8.33219 9.216 8.01219 9.12C7.69752 9.01867 7.30285 8.968 6.82819 8.968C6.27885 8.968 5.77485 9.064 5.31619 9.256C4.85752 9.448 4.46285 9.728 4.13219 10.096C3.80152 10.464 3.54285 10.912 3.35619 11.44C3.17485 11.968 3.08419 12.568 3.08419 13.24C3.08419 13.9173 3.18019 14.5227 3.37219 15.056C3.56419 15.584 3.82819 16.032 4.16419 16.4C4.50019 16.7627 4.89485 17.04 5.34819 17.232C5.80152 17.424 6.28952 17.52 6.81219 17.52C7.13219 17.52 7.41752 17.504 7.66819 17.472C7.92419 17.4347 8.15885 17.3787 8.37219 17.304C8.58552 17.224 8.78552 17.1253 8.97219 17.008C9.16419 16.8907 9.35352 16.7467 9.54019 16.576C9.64685 16.48 9.75352 16.432 9.86019 16.432ZM20.2508 16.432C20.3521 16.432 20.4401 16.472 20.5148 16.552L21.2588 17.36C20.7895 17.9253 20.2135 18.3627 19.5308 18.672C18.8481 18.976 18.0321 19.128 17.0828 19.128C16.2401 19.128 15.4775 18.984 14.7948 18.696C14.1175 18.4027 13.5388 17.9973 13.0588 17.48C12.5788 16.9573 12.2081 16.336 11.9468 15.616C11.6908 14.896 11.5628 14.104 11.5628 13.24C11.5628 12.376 11.6988 11.584 11.9708 10.864C12.2481 10.1387 12.6348 9.51733 13.1308 9C13.6321 8.47733 14.2295 8.072 14.9228 7.784C15.6215 7.496 16.3895 7.352 17.2268 7.352C18.0588 7.352 18.7921 7.488 19.4268 7.76C20.0668 8.02667 20.6215 8.384 21.0908 8.832L20.4748 9.704C20.4321 9.76267 20.3815 9.81333 20.3228 9.856C20.2641 9.89867 20.1841 9.92 20.0828 9.92C19.9761 9.92 19.8535 9.872 19.7148 9.776C19.5815 9.67467 19.4081 9.56533 19.1948 9.448C18.9868 9.32533 18.7228 9.216 18.4028 9.12C18.0881 9.01867 17.6935 8.968 17.2188 8.968C16.6695 8.968 16.1655 9.064 15.7068 9.256C15.2481 9.448 14.8535 9.728 14.5228 10.096C14.1921 10.464 13.9335 10.912 13.7468 11.44C13.5655 11.968 13.4748 12.568 13.4748 13.24C13.4748 13.9173 13.5708 14.5227 13.7628 15.056C13.9548 15.584 14.2188 16.032 14.5548 16.4C14.8908 16.7627 15.2855 17.04 15.7388 17.232C16.1921 17.424 16.6801 17.52 17.2028 17.52C17.5228 17.52 17.8081 17.504 18.0588 17.472C18.3148 17.4347 18.5495 17.3787 18.7628 17.304C18.9761 17.224 19.1761 17.1253 19.3628 17.008C19.5548 16.8907 19.7441 16.7467 19.9308 16.576C20.0375 16.48 20.1441 16.432 20.2508 16.432Z" fill="white"/>
</g>
<path d="M9.86019 16.432C9.96152 16.432 10.0495 16.472 10.1242 16.552L10.8682 17.36C10.3989 17.9253 9.82285 18.3627 9.14019 18.672C8.45752 18.976 7.64152 19.128 6.69219 19.128C5.84952 19.128 5.08685 18.984 4.40419 18.696C3.72685 18.4027 3.14819 17.9973 2.66819 17.48C2.18819 16.9573 1.81752 16.336 1.55619 15.616C1.30019 14.896 1.17219 14.104 1.17219 13.24C1.17219 12.376 1.30819 11.584 1.58019 10.864C1.85752 10.1387 2.24419 9.51733 2.74019 9C3.24152 8.47733 3.83885 8.072 4.53219 7.784C5.23085 7.496 5.99885 7.352 6.83619 7.352C7.66819 7.352 8.40152 7.488 9.03619 7.76C9.67619 8.02667 10.2309 8.384 10.7002 8.832L10.0842 9.704C10.0415 9.76267 9.99085 9.81333 9.93219 9.856C9.87352 9.89867 9.79352 9.92 9.69219 9.92C9.58552 9.92 9.46285 9.872 9.32419 9.776C9.19085 9.67467 9.01752 9.56533 8.80419 9.448C8.59619 9.32533 8.33219 9.216 8.01219 9.12C7.69752 9.01867 7.30285 8.968 6.82819 8.968C6.27885 8.968 5.77485 9.064 5.31619 9.256C4.85752 9.448 4.46285 9.728 4.13219 10.096C3.80152 10.464 3.54285 10.912 3.35619 11.44C3.17485 11.968 3.08419 12.568 3.08419 13.24C3.08419 13.9173 3.18019 14.5227 3.37219 15.056C3.56419 15.584 3.82819 16.032 4.16419 16.4C4.50019 16.7627 4.89485 17.04 5.34819 17.232C5.80152 17.424 6.28952 17.52 6.81219 17.52C7.13219 17.52 7.41752 17.504 7.66819 17.472C7.92419 17.4347 8.15885 17.3787 8.37219 17.304C8.58552 17.224 8.78552 17.1253 8.97219 17.008C9.16419 16.8907 9.35352 16.7467 9.54019 16.576C9.64685 16.48 9.75352 16.432 9.86019 16.432ZM20.2508 16.432C20.3521 16.432 20.4401 16.472 20.5148 16.552L21.2588 17.36C20.7895 17.9253 20.2135 18.3627 19.5308 18.672C18.8481 18.976 18.0321 19.128 17.0828 19.128C16.2401 19.128 15.4775 18.984 14.7948 18.696C14.1175 18.4027 13.5388 17.9973 13.0588 17.48C12.5788 16.9573 12.2081 16.336 11.9468 15.616C11.6908 14.896 11.5628 14.104 11.5628 13.24C11.5628 12.376 11.6988 11.584 11.9708 10.864C12.2481 10.1387 12.6348 9.51733 13.1308 9C13.6321 8.47733 14.2295 8.072 14.9228 7.784C15.6215 7.496 16.3895 7.352 17.2268 7.352C18.0588 7.352 18.7921 7.488 19.4268 7.76C20.0668 8.02667 20.6215 8.384 21.0908 8.832L20.4748 9.704C20.4321 9.76267 20.3815 9.81333 20.3228 9.856C20.2641 9.89867 20.1841 9.92 20.0828 9.92C19.9761 9.92 19.8535 9.872 19.7148 9.776C19.5815 9.67467 19.4081 9.56533 19.1948 9.448C18.9868 9.32533 18.7228 9.216 18.4028 9.12C18.0881 9.01867 17.6935 8.968 17.2188 8.968C16.6695 8.968 16.1655 9.064 15.7068 9.256C15.2481 9.448 14.8535 9.728 14.5228 10.096C14.1921 10.464 13.9335 10.912 13.7468 11.44C13.5655 11.968 13.4748 12.568 13.4748 13.24C13.4748 13.9173 13.5708 14.5227 13.7628 15.056C13.9548 15.584 14.2188 16.032 14.5548 16.4C14.8908 16.7627 15.2855 17.04 15.7388 17.232C16.1921 17.424 16.6801 17.52 17.2028 17.52C17.5228 17.52 17.8081 17.504 18.0588 17.472C18.3148 17.4347 18.5495 17.3787 18.7628 17.304C18.9761 17.224 19.1761 17.1253 19.3628 17.008C19.5548 16.8907 19.7441 16.7467 19.9308 16.576C20.0375 16.48 20.1441 16.432 20.2508 16.432Z" fill="white"/>
<defs>
<filter id="filter0_f_1184_325" x="0.172363" y="6.35199" width="22.0864" height="13.776" filterUnits="userSpaceOnUse" color-interpolation-filters="sRGB">
<feFlood flood-opacity="0" result="BackgroundImageFix"/>
<feBlend mode="normal" in="SourceGraphic" in2="BackgroundImageFix" result="shape"/>
<feGaussianBlur stdDeviation="0.5" result="effect1_foregroundBlur_1184_325"/>
</filter>
</defs>
</svg>

<svg width="23" height="25" fill="none" xmlns="http://www.w3.org/2000/svg"><g filter="url(#a)"><path d="M9.86 16.432c.102 0 .19.04.264.12l.744.808a4.776 4.776 0 0 1-1.728 1.312c-.682.304-1.498.456-2.448.456-.842 0-1.605-.144-2.288-.432a5.102 5.102 0 0 1-1.736-1.216 5.488 5.488 0 0 1-1.112-1.864c-.256-.72-.384-1.512-.384-2.376 0-.864.136-1.656.408-2.376A5.49 5.49 0 0 1 2.74 9a5.233 5.233 0 0 1 1.792-1.216c.699-.288 1.467-.432 2.304-.432.832 0 1.566.136 2.2.408.64.267 1.195.624 1.664 1.072l-.616.872a.686.686 0 0 1-.152.152.4.4 0 0 1-.24.064c-.106 0-.23-.048-.368-.144a4.292 4.292 0 0 0-.52-.328 3.618 3.618 0 0 0-.792-.328c-.314-.101-.71-.152-1.184-.152-.55 0-1.053.096-1.512.288a3.269 3.269 0 0 0-1.184.84c-.33.368-.59.816-.776 1.344-.181.528-.272 1.128-.272 1.8 0 .677.096 1.283.288 1.816.192.528.456.976.792 1.344.336.363.73.64 1.184.832.454.192.942.288 1.464.288.32 0 .606-.016.856-.048.256-.037.49-.093.704-.168.214-.08.414-.179.6-.296.192-.117.382-.261.568-.432a.482.482 0 0 1 .32-.144zm10.39 0c.102 0 .19.04.265.12l.744.808a4.775 4.775 0 0 1-1.728 1.312c-.683.304-1.499.456-2.448.456-.843 0-1.605-.144-2.288-.432a5.103 5.103 0 0 1-1.736-1.216 5.488 5.488 0 0 1-1.112-1.864c-.256-.72-.384-1.512-.384-2.376 0-.864.136-1.656.408-2.376A5.49 5.49 0 0 1 13.13 9a5.233 5.233 0 0 1 1.792-1.216c.698-.288 1.467-.432 2.304-.432.832 0 1.565.136 2.2.408.64.267 1.195.624 1.664 1.072l-.616.872a.685.685 0 0 1-.152.152.4.4 0 0 1-.24.064c-.107 0-.23-.048-.368-.144a4.29 4.29 0 0 0-.52-.328 3.618 3.618 0 0 0-.792-.328c-.315-.101-.71-.152-1.184-.152-.55 0-1.053.096-1.512.288a3.269 3.269 0 0 0-1.184.84c-.33.368-.59.816-.776 1.344-.181.528-.272 1.128-.272 1.8 0 .677.096 1.283.288 1.816.192.528.456.976.792 1.344.336.363.73.64 1.184.832.453.192.941.288 1.464.288.32 0 .605-.016.856-.048.256-.037.49-.093.704-.168.213-.08.413-.179.6-.296.192-.117.381-.261.568-.432a.482.482 0 0 1 .32-.144z" fill="#fff"/></g><path d="M9.86 16.432c.102 0 .19.04.264.12l.744.808a4.776 4.776 0 0 1-1.728 1.312c-.682.304-1.498.456-2.448.456-.842 0-1.605-.144-2.288-.432a5.102 5.102 0 0 1-1.736-1.216 5.488 5.488 0 0 1-1.112-1.864c-.256-.72-.384-1.512-.384-2.376 0-.864.136-1.656.408-2.376A5.49 5.49 0 0 1 2.74 9a5.233 5.233 0 0 1 1.792-1.216c.699-.288 1.467-.432 2.304-.432.832 0 1.566.136 2.2.408.64.267 1.195.624 1.664 1.072l-.616.872a.686.686 0 0 1-.152.152.4.4 0 0 1-.24.064c-.106 0-.23-.048-.368-.144a4.292 4.292 0 0 0-.52-.328 3.618 3.618 0 0 0-.792-.328c-.314-.101-.71-.152-1.184-.152-.55 0-1.053.096-1.512.288a3.269 3.269 0 0 0-1.184.84c-.33.368-.59.816-.776 1.344-.181.528-.272 1.128-.272 1.8 0 .677.096 1.283.288 1.816.192.528.456.976.792 1.344.336.363.73.64 1.184.832.454.192.942.288 1.464.288.32 0 .606-.016.856-.048.256-.037.49-.093.704-.168.214-.08.414-.179.6-.296.192-.117.382-.261.568-.432a.482.482 0 0 1 .32-.144zm10.39 0c.102 0 .19.04.265.12l.744.808a4.775 4.775 0 0 1-1.728 1.312c-.683.304-1.499.456-2.448.456-.843 0-1.605-.144-2.288-.432a5.103 5.103 0 0 1-1.736-1.216 5.488 5.488 0 0 1-1.112-1.864c-.256-.72-.384-1.512-.384-2.376 0-.864.136-1.656.408-2.376A5.49 5.49 0 0 1 13.13 9a5.233 5.233 0 0 1 1.792-1.216c.698-.288 1.467-.432 2.304-.432.832 0 1.565.136 2.2.408.64.267 1.195.624 1.664 1.072l-.616.872a.685.685 0 0 1-.152.152.4.4 0 0 1-.24.064c-.107 0-.23-.048-.368-.144a4.29 4.29 0 0 0-.52-.328 3.618 3.618 0 0 0-.792-.328c-.315-.101-.71-.152-1.184-.152-.55 0-1.053.096-1.512.288a3.269 3.269 0 0 0-1.184.84c-.33.368-.59.816-.776 1.344-.181.528-.272 1.128-.272 1.8 0 .677.096 1.283.288 1.816.192.528.456.976.792 1.344.336.363.73.64 1.184.832.453.192.941.288 1.464.288.32 0 .605-.016.856-.048.256-.037.49-.093.704-.168.213-.08.413-.179.6-.296.192-.117.381-.261.568-.432a.482.482 0 0 1 .32-.144z" fill="#fff"/><defs><filter id="a" x=".172" y="6.352" width="22.086" height="13.776" filterUnits="userSpaceOnUse" color-interpolation-filters="sRGB"><feFlood flood-opacity="0" result="BackgroundImageFix"/><feBlend in="SourceGraphic" in2="BackgroundImageFix" result="shape"/><feGaussianBlur stdDeviation=".5" result="effect1_foregroundBlur_1184_325"/></filter></defs></svg>
